img/icons/service-icon5.svg

<svg width="60" height="60" viewBox="0 0 60 60" fill="none" xmlns="http://www.w3.org/2000/svg">
<path fill-rule="evenodd" clip-rule="evenodd" d="M52.5 23.8943C52.5 20.1522 49.4857 17.0815 45.6461 16.7691L44.056 12.3383C42.6737 8.48657 38.2029 6.51052 34.227 7.99397L10.3392 16.9067C10.1006 16.9957 9.88446 17.1159 9.69382 17.2603C6.94188 18.3197 5 20.8908 5 23.8943V45.3486C5 49.2982 8.35787 52.5 12.5 52.5L45 52.5C49.1421 52.5 52.5 49.2982 52.5 45.3486V39.9431C53.9945 39.1188 55 37.578 55 35.8134V31.0457C55 29.2811 53.9945 27.7403 52.5 26.916V23.8943ZM47.5 26.2781V23.8943C47.5 22.5778 46.3807 21.5105 45 21.5105L12.5 21.5105C11.1193 21.5105 10 22.5778 10 23.8943L10 45.3486C10 46.6651 11.1193 47.7324 12.5 47.7324L45 47.7324C46.3807 47.7324 47.5 46.6651 47.5 45.3486V40.581H45C40.8579 40.581 37.5 37.3792 37.5 33.4296C37.5 29.4799 40.8579 26.2781 45 26.2781H47.5ZM39.3253 13.8819L40.3521 16.7429L24.4997 16.7429L36.049 12.4338C37.3743 11.9393 38.8645 12.598 39.3253 13.8819ZM42.5 33.4296C42.5 32.113 43.6193 31.0457 45 31.0457H50V35.8134H45C43.6193 35.8134 42.5 34.7461 42.5 33.4296Z" fill="#E3000F"/>
</svg>

<svg width="60" height="60" fill="none" xmlns="http://www.w3.org/2000/svg"><path fill-rule="evenodd" clip-rule="evenodd" d="M52.5 23.894c0-3.742-3.014-6.813-6.854-7.125l-1.59-4.43c-1.382-3.852-5.853-5.828-9.829-4.345l-23.888 8.913a2.54 2.54 0 00-.645.353C6.942 18.32 5 20.89 5 23.894V45.35c0 3.95 3.358 7.151 7.5 7.151H45c4.142 0 7.5-3.202 7.5-7.151v-5.406c1.495-.824 2.5-2.365 2.5-4.13v-4.767c0-1.765-1.005-3.306-2.5-4.13v-3.022zm-5 2.384v-2.384c0-1.316-1.12-2.383-2.5-2.383H12.5c-1.38 0-2.5 1.067-2.5 2.383V45.35c0 1.316 1.12 2.383 2.5 2.383H45c1.38 0 2.5-1.067 2.5-2.383v-4.77H45c-4.142 0-7.5-3.202-7.5-7.151 0-3.95 3.358-7.152 7.5-7.152h2.5zm-8.175-12.396l1.027 2.86H24.5l11.549-4.308c1.325-.495 2.816.164 3.276 1.448zM42.5 33.43c0-1.317 1.12-2.384 2.5-2.384h5v4.767h-5c-1.38 0-2.5-1.067-2.5-2.383z" fill="#E3000F"/></svg>
